lib/brands/icons/dropbox-alt.svg

<svg xmlns="http://www.w3.org/2000/svg" fill="none" aria-hidden="true" viewBox="0 0 48 48"><g id="dropbox-alt-Icon"><rect width="48" height="48" fill="#0F287F" rx="24"/><path id="Dropbox" fill="#DAF8FE" fill-rule="evenodd" d="M39.9998 15.0722L33.491 20.2216L23.9998 14.4315L30.5866 9.00006L39.9998 15.0722ZM17.4132 9.00009L23.9998 14.4315L14.5089 20.2216L8.00003 15.0723L17.4132 9.00009ZM23.9999 26.0119L17.4132 31.4436L8 25.3714L14.5089 20.2216L23.9999 26.0119ZM23.9999 26.0119L33.491 20.2216L39.9998 25.3714L30.5866 31.4436L23.9999 26.0119ZM30.6253 32.5961L24.0192 27.1804L17.4132 32.5961L14.5863 30.7727V32.8169L24.0192 38.4055L33.4522 32.8169V30.7727L30.6253 32.5961Z" clip-rule="evenodd"/></g></svg>

<svg xmlns="http://www.w3.org/2000/svg" fill="none" aria-hidden="true" viewBox="0 0 48 48"><rect width="48" height="48" fill="#0F287F" rx="24"/><path fill="#DAF8FE" fill-rule="evenodd" d="m40 15.072-6.509 5.15L24 14.432 30.587 9 40 15.072ZM17.413 9 24 14.431l-9.491 5.79L8 15.073 17.413 9ZM24 26.012l-6.587 5.432L8 25.37l6.509-5.15 9.49 5.79Zm0 0 9.491-5.79L40 25.372l-9.413 6.072L24 26.012Zm6.625 6.584L24.02 27.18l-6.606 5.416-2.827-1.823v2.044l9.433 5.589 9.433-5.59v-2.043l-2.827 1.823Z" clip-rule="evenodd"/></svg>
